dist/svgs/devui-icons/op/minimize.svg

<?xml version="1.0" encoding="UTF-8"?>
<svg width="16px" height="16px" viewBox="0 0 16 16" version="1.1" xmlns="http://www.w3.org/2000/svg" xmlns:xlink="http://www.w3.org/1999/xlink">
    <title>操作/minimize</title>
    <desc>Created with Sketch.</desc>
    <g id="操作/minimize" stroke="none" stroke-width="1" fill="none" fill-rule="evenodd">
        <path d="M10,4.94974747 L13.9497475,1 L15.363961,2.41421356 L11.7781746,6 L14,6 L14,8 L8,8 L8,2 L10,2 L10,4.94974747 Z M6,11.7781746 L2.41421356,15.363961 L1,13.9497475 L4.94974747,10 L2,10 L2,8 L8,8 L8,14 L6,14 L6,11.7781746 Z" id="形状" fill="#293040"></path>
    </g>
</svg>

<svg xmlns="http://www.w3.org/2000/svg" viewBox="0 0 16 16"><path fill-rule="evenodd" d="M10 4.95L13.95 1l1.414 1.414L11.778 6H14v2H8V2h2v2.95zm-4 6.828l-3.586 3.586L1 13.95 4.95 10H2V8h6v6H6v-2.222z"/></svg>
